gtk-icons/Papirus-GTK/32x32/apps/kreversi.svg

<?xml version="1.0" encoding="UTF-8" standalone="no"?>
<!-- Created with Inkscape (http://www.inkscape.org/) -->

<svg
   xmlns:dc="http://purl.org/dc/elements/1.1/"
   xmlns:cc="http://creativecommons.org/ns#"
   xmlns:rdf="http://www.w3.org/1999/02/22-rdf-syntax-ns#"
   xmlns:svg="http://www.w3.org/2000/svg"
   xmlns="http://www.w3.org/2000/svg"
   xmlns:xlink="http://www.w3.org/1999/xlink"
   xmlns:sodipodi="http://sodipodi.sourceforge.net/DTD/sodipodi-0.dtd"
   xmlns:inkscape="http://www.inkscape.org/namespaces/inkscape"
   width="32"
   height="32"
   id="svg4125"
   version="1.1"
   inkscape:version="0.91 r"
   sodipodi:docname="kreversi.svg">
  <defs
     id="defs4127">
    <linearGradient
       id="linearGradient4817-5">
      <stop
         id="stop4819-3"
         offset="0"
         style="stop-color:#ffffff;stop-opacity:1;" />
      <stop
         id="stop4821-66"
         offset="1"
         style="stop-color:#ffffff;stop-opacity:0;" />
    </linearGradient>
    <radialGradient
       inkscape:collect="always"
       xlink:href="#linearGradient4817-5"
       id="radialGradient4334"
       gradientUnits="userSpaceOnUse"
       gradientTransform="matrix(1.9523809,0,0,1,-10.773809,0)"
       cx="11.3125"
       cy="61.249996"
       fx="11.3125"
       fy="61.249996"
       r="11.375" />
  </defs>
  <sodipodi:namedview
     id="base"
     pagecolor="#ffffff"
     bordercolor="#666666"
     borderopacity="1.0"
     inkscape:pageopacity="0.0"
     inkscape:pageshadow="2"
     inkscape:zoom="1"
     inkscape:cx="16.22386"
     inkscape:cy="26.592687"
     inkscape:document-units="px"
     inkscape:current-layer="layer1"
     showgrid="false"
     fit-margin-top="0"
     fit-margin-left="0"
     fit-margin-right="0"
     fit-margin-bottom="0"
     inkscape:snap-bbox="true"
     showguides="true"
     inkscape:guide-bbox="true"
     inkscape:window-width="1600"
     inkscape:window-height="843"
     inkscape:window-x="-4"
     inkscape:window-y="31"
     inkscape:window-maximized="1"
     inkscape:snap-nodes="true"
     inkscape:snap-bbox-edge-midpoints="false">
    <inkscape:grid
       type="xygrid"
       id="grid3425" />
  </sodipodi:namedview>
  <metadata
     id="metadata4130">
    <rdf:RDF>
      <cc:Work
         rdf:about="">
        <dc:format>image/svg+xml</dc:format>
        <dc:type
           rdf:resource="http://purl.org/dc/dcmitype/StillImage" />
        <dc:title></dc:title>
      </cc:Work>
    </rdf:RDF>
  </metadata>
  <g
     inkscape:label="Capa 1"
     inkscape:groupmode="layer"
     id="layer1"
     transform="translate(-310.28571,-267.21933)">
    <circle
       style="opacity:0.63049095;fill:url(#radialGradient4334);fill-opacity:1;stroke:none"
       id="path4797-6"
       transform="matrix(2.6373624,0,0,2.6373624,25.45055,137.25287)"
       cx="11.3125"
       cy="69.375"
       r="11.375" />
    <path
       sodipodi:nodetypes="csssssc"
       inkscape:connector-curvature="0"
       id="path5092"
       d="m 327.05991,297.21933 c 7.30385,0 13.2258,-6.2686 13.2258,-14 0,-7.7314 -5.92195,-14 -13.2258,-14 -3.74151,0 -6.7742,2.4343 -6.7742,6.3 0,3.8657 3.28401,6.05014 6.42857,7 3.07469,0.92876 7.11983,3.8343 7.11983,7.7 0,3.8657 -3.0327,7 -6.7742,7 z"
       style="fill:#f65e5e;fill-opacity:1;stroke:none" />
    <circle
       r="3"
       cy="-276.21933"
       cx="-327.28571"
       id="circle5094"
       style="opacity:1;fill:#ffffff;fill-opacity:1"
       transform="scale(-1,-1)" />
    <path
       style="fill:#8d62ad;fill-opacity:1;stroke:none"
       d="m 325.51151,269.21933 c -7.30385,0 -13.2258,6.2686 -13.2258,14 0,7.7314 5.92195,14 13.2258,14 3.74151,0 6.7742,-2.4343 6.7742,-6.3 0,-3.8657 -3.28401,-6.05014 -6.42857,-7 -3.07469,-0.92876 -7.11983,-3.8343 -7.11983,-7.7 0,-3.8657 3.0327,-7 6.7742,-7 z"
       id="path4559-2"
       inkscape:connector-curvature="0"
       sodipodi:nodetypes="csssssc" />
    <circle
       style="opacity:1;fill:#ffffff;fill-opacity:1"
       id="path5012"
       cx="325.28571"
       cy="290.21933"
       r="3" />
    <path
       style="fill:#000000;fill-opacity:1;stroke:none;opacity:0.3"
       d="M 12.421875 2.3476562 C 11.787243 2.4928392 11.16944 2.680397 10.572266 2.9179688 C 9.267292 4.1936832 8.4511719 5.9972622 8.4511719 8 C 8.4511719 8.1403328 8.4680907 8.276311 8.4785156 8.4140625 C 8.6577042 6.1827495 9.8473326 4.2483309 11.576172 3.1035156 C 11.832724 2.8261546 12.115556 2.5736568 12.421875 2.3476562 z M 10.025391 7.7871094 C 10.013106 7.9566452 10 8.1252522 10 8.3007812 C 10 12.166481 13.283174 14.350921 16.427734 15.300781 C 19.390807 16.195825 23.244737 18.929095 23.521484 22.585938 C 23.537015 22.392548 23.548828 22.197535 23.548828 22 C 23.548828 18.1343 19.502424 15.229541 16.427734 14.300781 C 13.418732 13.391868 10.290168 11.348255 10.025391 7.7871094 z M 2.0234375 15.494141 C 2.0177131 15.663271 2 15.829374 2 16 C 2 23.7314 7.922713 30 15.226562 30 C 16.884058 30 18.401045 29.520788 19.578125 28.652344 C 18.891207 28.809488 18.18881 28.923191 17.466797 28.962891 C 18.548351 28.849387 19.553461 28.472831 20.423828 27.896484 C 21.406804 26.833779 22 25.40675 22 23.699219 C 22 23.532574 21.986538 23.373322 21.974609 23.212891 C 21.716342 26.777064 18.798183 29 15.226562 29 C 8.080271 29 2.2713865 22.994821 2.0234375 15.494141 z M 29.976562 15.505859 C 29.781176 21.278696 26.290343 26.147555 21.427734 28.082031 C 20.37127 29.114808 18.995091 29.802504 17.466797 29.962891 C 24.446641 29.57911 30 23.483865 30 16 C 30 15.833218 29.982029 15.671231 29.976562 15.505859 z "
       transform="translate(310.28571,267.21933)"
       id="path5100" />
    <path
       style="fill:#ffffff;fill-opacity:1;stroke:none;opacity:0.2"
       d="M 16.773438 2 C 15.115942 2 13.598955 2.4792118 12.421875 3.3476562 C 13.108793 3.1905122 13.81119 3.0768086 14.533203 3.0371094 C 13.451649 3.1506129 12.446539 3.5271695 11.576172 4.1035156 C 10.593196 5.1662213 10 6.5932502 10 8.3007812 C 10 8.4674256 10.013462 8.6266779 10.025391 8.7871094 C 10.283658 5.2229359 13.201817 3 16.773438 3 C 23.919729 3 29.728613 9.0051787 29.976562 16.505859 C 29.982287 16.336729 30 16.170626 30 16 C 30 8.2686 24.077288 2 16.773438 2 z M 14.533203 2.0371094 C 7.5533591 2.4208904 2 8.5161348 2 16 C 2 16.166782 2.0179708 16.328769 2.0234375 16.494141 C 2.2188241 10.721296 5.7096568 5.8524425 10.572266 3.9179688 C 11.62873 2.8851917 13.004909 2.1974963 14.533203 2.0371094 z M 8.4785156 9.4140625 C 8.4629852 9.6074523 8.4511719 9.8024646 8.4511719 10 C 8.4511719 13.8657 12.497576 16.770459 15.572266 17.699219 C 18.581268 18.608132 21.709832 20.651745 21.974609 24.212891 C 21.986894 24.043355 22 23.874748 22 23.699219 C 22 19.833519 18.716826 17.649079 15.572266 16.699219 C 12.609193 15.804175 8.7552631 13.070905 8.4785156 9.4140625 z M 23.521484 23.585938 C 23.342296 25.817251 22.152667 27.751669 20.423828 28.896484 C 20.167276 29.173845 19.884444 29.426343 19.578125 29.652344 C 20.212757 29.507161 20.83056 29.319603 21.427734 29.082031 C 22.732708 27.806317 23.548828 26.002738 23.548828 24 C 23.548828 23.859667 23.531909 23.723689 23.521484 23.585938 z "
       transform="translate(310.28571,267.21933)"
       id="path5105" />
  </g>
</svg>

<?xml version="1.0" encoding="UTF-8" standalone="no"?>
<!-- Created with Inkscape (http://www.inkscape.org/) -->
<svg id="svg4125" xmlns:rdf="http://www.w3.org/1999/02/22-rdf-syntax-ns#" xmlns="http://www.w3.org/2000/svg" height="32" width="32" version="1.1" xmlns:cc="http://creativecommons.org/ns#" xmlns:xlink="http://www.w3.org/1999/xlink" xmlns:dc="http://purl.org/dc/elements/1.1/">
 <defs id="defs4127">
  <radialGradient id="radialGradient4334" gradientUnits="userSpaceOnUse" cy="61.25" cx="11.312" gradientTransform="matrix(1.9524 0 0 1 -10.774 0)" r="11.375">
   <stop id="stop4819-3" stop-color="#fff" offset="0"/>
   <stop id="stop4821-66" stop-color="#fff" stop-opacity="0" offset="1"/>
  </radialGradient>
 </defs>
 <metadata id="metadata4130">
  <rdf:RDF>
   <cc:Work rdf:about="">
    <dc:format>image/svg+xml</dc:format>
    <dc:type rdf:resource="http://purl.org/dc/dcmitype/StillImage"/>
    <dc:title/>
   </cc:Work>
  </rdf:RDF>
 </metadata>
 <g id="layer1" transform="translate(-310.29 -267.22)">
  <circle id="path4797-6" opacity=".63049" cx="11.312" transform="matrix(2.6374 0 0 2.6374 25.451 137.25)" cy="69.375" r="11.375" fill="url(#radialGradient4334)"/>
  <path id="path5092" d="m327.06 297.22c7.3038 0 13.226-6.2686 13.226-14s-5.922-14-13.226-14c-3.7415 0-6.7742 2.4343-6.7742 6.3s3.284 6.0501 6.4286 7c3.0747 0.92876 7.1198 3.8343 7.1198 7.7s-3.0327 7-6.7742 7z" fill="#f65e5e"/>
  <circle id="circle5094" transform="scale(-1)" cy="-276.22" cx="-327.29" r="3" fill="#fff"/>
  <path id="path4559-2" d="m325.51 269.22c-7.3038 0-13.226 6.2686-13.226 14s5.922 14 13.226 14c3.7415 0 6.7742-2.4343 6.7742-6.3s-3.284-6.0501-6.4286-7c-3.0747-0.92876-7.1198-3.8343-7.1198-7.7s3.0327-7 6.7742-7z" fill="#8d62ad"/>
  <circle id="path5012" cx="325.29" cy="290.22" r="3" fill="#fff"/>
  <path id="path5100" opacity=".3" d="m12.422 2.3477c-0.635 0.1451-1.253 0.3327-1.85 0.5703-1.3047 1.2757-2.1208 3.0793-2.1208 5.082 0 0.1403 0.0169 0.2763 0.0273 0.4141 0.1792-2.2314 1.3688-4.1658 3.0975-5.3106 0.257-0.2773 0.54-0.5298 0.846-0.7558zm-2.397 5.4394c-0.012 0.1695-0.025 0.3382-0.025 0.5137 0 3.8652 3.283 6.0502 6.428 7.0002 2.963 0.895 6.817 3.628 7.093 7.285 0.016-0.193 0.028-0.388 0.028-0.586 0-3.866-4.047-6.77-7.121-7.699-3.009-0.909-6.138-2.953-6.403-6.5139zm-8.0016 7.7069c-0.0057 0.169-0.0234 0.335-0.0234 0.506 0 7.731 5.9227 14 13.227 14 1.657 0 3.174-0.479 4.351-1.348-0.687 0.157-1.389 0.271-2.111 0.311 1.081-0.114 2.086-0.49 2.957-1.067 0.983-1.062 1.576-2.489 1.576-4.197 0-0.166-0.013-0.326-0.025-0.486-0.259 3.564-3.177 5.787-6.748 5.787-7.1467 0-12.956-6.005-13.204-13.506zm27.954 0.012c-0.196 5.773-3.687 10.642-8.549 12.576-1.057 1.033-2.433 1.721-3.961 1.881 6.98-0.384 12.533-6.479 12.533-13.963 0-0.167-0.018-0.329-0.023-0.494z" transform="translate(310.29 267.22)"/>
  <path id="path5105" opacity=".2" d="m16.773 2c-1.657 0-3.174 0.4792-4.351 1.3477 0.687-0.1572 1.389-0.2709 2.111-0.3106-1.081 0.1135-2.086 0.4901-2.957 1.0664-0.983 1.0627-1.576 2.4898-1.576 4.1973 0 0.1666 0.013 0.3259 0.025 0.4863 0.259-3.5642 3.177-5.7871 6.748-5.7871 7.147 0 12.956 6.0052 13.204 13.506 0.005-0.169 0.023-0.335 0.023-0.506 0-7.7314-5.923-14-13.227-14zm-2.24 0.0371c-6.9796 0.3838-12.533 6.479-12.533 13.963 0 0.167 0.018 0.329 0.0234 0.494 0.1954-5.773 3.6863-10.642 8.5486-12.576 1.057-1.0328 2.433-1.7205 3.961-1.8809zm-6.0545 7.377c-0.0155 0.1934-0.0273 0.3884-0.0273 0.5859 0 3.866 4.0468 6.77 7.1208 7.699 3.009 0.909 6.138 2.953 6.403 6.514 0.012-0.17 0.025-0.338 0.025-0.514 0-3.865-3.283-6.05-6.428-7-2.963-0.895-6.8167-3.628-7.0935-7.2849zm15.042 14.172c-0.179 2.231-1.368 4.166-3.097 5.31-0.257 0.278-0.54 0.53-0.846 0.756 0.635-0.145 1.253-0.332 1.85-0.57 1.305-1.276 2.121-3.079 2.121-5.082 0-0.14-0.017-0.276-0.028-0.414z" transform="translate(310.29 267.22)" fill="#fff"/>
 </g>
</svg>
